X:1
T: Bonnybridge
R:Strathspey
M:4/4
K:A
Q:128
K:A
M:4/4
L:1/16
|:aa3 e3d cA3 A3c|dd3 B3A GE3 E3D|C3E A3G FF3 d3B|((3G2A2B2) E3d cA3 A2e2|
aa3 e3d cA3 A3c|dd3 B3A GE3 E3D|C3E A3G FF3 d3B|((3G2A2B2) E3d cA3 A2e2|
((3c2d2e2) A3=G FD3 D3c|((3d2e2f2) B3A GE3 E3G|((3A2B2c2) ((3B2c2d2) ((3c2d2e2) ((3d2e2f2)|ea3 e3d cA3 A2e2|
((3c2d2e2) A3=G FD3 D3c|((3d2e2f2) B3A GE3 E3G|((3A2B2c2) ((3B2c2d2) ((3c2d2e2) ((3d2e2f2)|ea3 e3d cA3 A4:|
